packages/katcn/src/icons/svg/users.svg

<svg width="24" height="25" viewBox="0 0 24 25" fill="none" xmlns="http://www.w3.org/2000/svg">
<path d="M6.79999 19.0761H3.49999C3.29999 19.0761 3.19999 18.9761 3.09999 18.8761C2.99999 18.7761 2.89999 18.5761 2.99999 18.3761C3.59999 16.6761 5.09999 15.6761 6.79999 15.6761C8.89999 15.6761 10.6 13.8761 10.6 11.7761C10.6 9.67609 8.89999 7.67609 6.79999 7.67609C4.69999 7.67609 2.99999 9.47609 2.99999 11.6761C2.99999 12.6761 3.39999 13.6761 3.99999 14.3761C2.69999 15.0761 1.69999 16.1761 1.09999 17.6761C0.899993 18.3761 0.999993 19.2761 1.49999 19.9761C1.99999 20.6761 2.69999 21.0761 3.49999 21.0761H6.79999C7.39999 21.0761 7.79999 20.6761 7.79999 20.0761C7.79999 19.4761 7.39999 19.0761 6.79999 19.0761ZM4.99999 11.6761C4.99999 10.5761 5.79999 9.77609 6.79999 9.77609C7.79999 9.77609 8.59999 10.6761 8.59999 11.6761C8.59999 12.7761 7.79999 13.5761 6.79999 13.5761C5.79999 13.5761 4.99999 12.6761 4.99999 11.6761Z" fill="black"/>
<path d="M22.9 17.0761C22.2 15.1761 20.8 13.7761 19.2 12.9761C20.1 12.1761 20.6 10.9761 20.6 9.5761C20.6 6.9761 18.6 4.8761 16.2 4.8761C13.8 4.8761 11.8 6.9761 11.8 9.5761C11.8 10.8761 12.3 12.0761 13.2 12.9761C11.6 13.7761 10.2 15.1761 9.50001 17.0761C9.00001 17.9761 9.20001 18.9761 9.70001 19.7761C10.2 20.5761 11.1 20.9761 12 20.9761H20.3C21.2 20.9761 22.1 20.4761 22.6 19.7761C23.2 18.9761 23.3 17.9761 22.9 17.0761ZM13.7 9.6761C13.7 8.1761 14.8 6.9761 16.1 6.9761C17.4 6.9761 18.5 8.1761 18.5 9.6761C18.5 11.1761 17.4 12.3761 16.1 12.3761C14.8 12.3761 13.7 11.0761 13.7 9.6761ZM20.9 18.6761C20.8 18.7761 20.6 19.0761 20.3 19.0761H12C11.6 19.0761 11.4 18.7761 11.4 18.6761C11.3 18.5761 11.1 18.1761 11.3 17.7761C12.1 15.6761 14.1 14.2761 16.2 14.2761C18.3 14.2761 20.3 15.6761 21.1 17.7761C21.2 18.1761 21 18.5761 20.9 18.6761Z" fill="black"/>
</svg>

<svg xmlns="http://www.w3.org/2000/svg" fill="none" viewBox="0 0 24 25"><path fill="#000" d="M6.8 19.076H3.5c-.2 0-.3-.1-.4-.2s-.2-.3-.1-.5c.6-1.7 2.1-2.7 3.8-2.7 2.1 0 3.8-1.8 3.8-3.9s-1.7-4.1-3.8-4.1-3.8 1.8-3.8 4c0 1 .4 2 1 2.7-1.3.7-2.3 1.8-2.9 3.3-.2.7-.1 1.6.4 2.3s1.2 1.1 2 1.1h3.3c.6 0 1-.4 1-1s-.4-1-1-1m-1.8-7.4c0-1.1.8-1.9 1.8-1.9s1.8.9 1.8 1.9c0 1.1-.8 1.9-1.8 1.9s-1.8-.9-1.8-1.9"/><path fill="#000" d="M22.9 17.076c-.7-1.9-2.1-3.3-3.7-4.1.9-.8 1.4-2 1.4-3.4 0-2.6-2-4.7-4.4-4.7s-4.4 2.1-4.4 4.7c0 1.3.5 2.5 1.4 3.4-1.6.8-3 2.2-3.7 4.1-.5.9-.3 1.9.2 2.7s1.4 1.2 2.3 1.2h8.3c.9 0 1.8-.5 2.3-1.2.6-.8.7-1.8.3-2.7m-9.2-7.4c0-1.5 1.1-2.7 2.4-2.7s2.4 1.2 2.4 2.7-1.1 2.7-2.4 2.7-2.4-1.3-2.4-2.7m7.2 9c-.1.1-.3.4-.6.4H12c-.4 0-.6-.3-.6-.4-.1-.1-.3-.5-.1-.9.8-2.1 2.8-3.5 4.9-3.5s4.1 1.4 4.9 3.5c.1.4-.1.8-.2.9"/></svg>
